X:1
T:James Gibb editions
T:O gloriosa virginum - Ravanello
T:#
%%score [ 1 2 3 ]
L:1/8
Q:1/4=144
M:2/2
K:F
V:1 treble nm="Soprano I"
V:2 treble nm="Soprano II"
V:3 treble nm="Alto I" snm="A"
V:1
"^O gloriosa virginum, op.66/26""^moderato""^Oreste Ravanello\n (1871-1938)"!p! F4 | F4!<(! G4 | %2
w: O|glo- ri-|
w: ~Quod|He- va|
w: Tu|re- gis|
w: Je-|su, ti-|
 A4!<)! d4 |!>(! c4 G4!>)! |"^," A4 A4 | c4 c4 |!<(! f4 d4!<)! | c4 d4 |"^," c4 c4 | %9
w: o- sa|vir- gi-|num, su-|bli- mis|in- ter|si- de-|ra, qui|
w: tri- stis|ab- stu-|lit, tu|red- dis|al- mo|ger- mi-|ne: in-|
w: al- ti|ja- nu-|a, et|au- la|lu- cis|ful- gi-|da: vi-|
w: bi sit|glo- ri-|a, qui|na- tus|es de|Vir- gi-|ne, cum|
[M:2/2] F4 G2- G2 | A4 d4 | c4 G4 |"^," A4 A4 | A4 B4 | c4!>(! A4 | G4!>)! G4 | !fermata!F8 || G8 | %18
w: te cre\- *|a- vit,|par- vu-|lum la-|cten- te|nu- tris|u- be-|re.||
w: trent ut *|a- stra|fle- bi-|les, coe-|lis re-|clu- dis|car- di-|nes.||
w: tem da\- *|tam per|Vir- gi-|nem, gen-|tes re-|dem- ptae|plau- di-|te.||
w: Pa- tre et|al- mo|Spi- ri-|tu in|sem- pi-|ter- na|sae- cu-|la.|A-|
 !fermata!A8 |] %19
w: |
w: |
w: |
w: men.|
V:2
!p! F4 | F4!<(! E4 | F4!<)! F4 |!>(! E4 E4!>)! |"^," F4 F4 | G4 A4 |!<(! A4 =B4!<)! | c4 =B4 | %8
w: O|glo- ri-|o- sa|vir- gi-|num, su-|bli- mis|in- ter|si- de-|
w: ~Quod|He- va|tri- stis|ab- stu-|lit, tu|red- dis|al- mo|ger- mi-|
w: Tu|re- gis|al- ti|ja- nu-|a, et|au- la|lu- cis|ful- gi-|
w: Je-|su, ti-|bi sit|glo- ri-|a, qui|na- tus|es de|Vir- gi-|
"^," c4 E4 |[M:2/2] F4 E2- E2 | F4 F4 | E4 D4 |"^," ^C4 E4 | F4 F4 | E4!>(! F4 | F4!>)! E4 | %16
w: ra, qui|te cre\- *|a- vit,|par- vu-|lum la-|cten- te|nu- tris|u- be-|
w: ne: in-|trent ut *|a- stra|fle- bi-|les, coe-|lis re-|clu- dis|car- di-|
w: da: vi-|tem da\- *|tam per|Vir- gi-|nem, gen-|tes re-|dem- ptae|plau- di-|
w: ne, cum|Pa- tre et|al- mo|Spi- ri-|tu in|sem- pi-|ter- na|sae- cu-|
 !fermata!F8 || E8 | !fermata!F8 |] %19
w: re.|||
w: nes.|||
w: te.|||
w: la.|A-|men.|
V:3
!p! F4 | D4!<(! C4 | F4!<)! B,4 |!>(! C4 C4!>)! |"^," F4 F4 | E4 F4 |!<(! D4 G4!<)! | A4 G4 | %8
w: O|glo- ri-|o- sa|vir- gi-|num, su-|bli- mis|in- ter|si- de-|
w: ~Quod|He- va|tri- stis|ab- stu-|lit, tu|red- dis|al- mo|ger- mi-|
w: Tu|re- gis|al- ti|ja- nu-|a, et|au- la|lu- cis|ful- gi-|
w: Je-|su, ti-|bi sit|glo- ri-|a, qui|na- tus|es de|Vir- gi-|
"^," C4 C4 |[M:2/2] D4 C2- C2 | F4 B,4 | C4 B,4 |"^," A,4 ^C4 | D4 D4 | =C4!>(! F4 | B,4!>)! C4 | %16
w: ra, qui|te cre\- *|a- vit,|par- vu-|lum la-|cten- te|nu- tris|u- be-|
w: ne: in-|trent ut *|a- stra|fle- bi-|les, coe-|lis re-|clu- dis|car- di-|
w: da: vi-|tem da\- *|tam per|Vir- gi-|nem, gen-|tes re-|dem- ptae|plau- di-|
w: ne, cum|Pa- tre et|al- mo|Spi- ri-|tu in|sem- pi-|ter- na|sae- cu-|
 !fermata!F8 || C8 | !fermata!F8 |] %19
w: re.|||
w: nes.|||
w: te.|||
w: la.|A-|men.|

